app/assets/images/icons/add.svg

<svg width="32" height="32" viewBox="0 0 32 32" fill="none" xmlns="http://www.w3.org/2000/svg">
<path d="M16 0.166748C24.7447 0.166748 31.8333 7.25533 31.8333 16.0001C31.8333 24.7448 24.7447 31.8334 16 31.8334C7.25525 31.8334 0.166666 24.7448 0.166666 16.0001C0.166666 7.25533 7.25525 0.166748 16 0.166748ZM16 8.08341C15.6122 8.08347 15.2379 8.22584 14.9481 8.48355C14.6583 8.74125 14.4731 9.09635 14.4277 9.4815L14.4167 9.66675V14.4167H9.66667C9.26311 14.4172 8.87495 14.5717 8.5815 14.8488C8.28805 15.1258 8.11146 15.5044 8.08781 15.9073C8.06416 16.3102 8.19523 16.7068 8.45425 17.0163C8.71327 17.3258 9.08068 17.5247 9.48142 17.5723L9.66667 17.5834H14.4167V22.3334C14.4171 22.737 14.5716 23.1251 14.8487 23.4186C15.1257 23.712 15.5043 23.8886 15.9072 23.9123C16.3101 23.9359 16.7068 23.8048 17.0162 23.5458C17.3257 23.2868 17.5246 22.9194 17.5722 22.5187L17.5833 22.3334V17.5834H22.3333C22.7369 17.583 23.125 17.4284 23.4185 17.1514C23.7119 16.8744 23.8885 16.4957 23.9122 16.0929C23.9358 15.69 23.8048 15.2933 23.5457 14.9838C23.2867 14.6744 22.9193 14.4755 22.5186 14.4278L22.3333 14.4167H17.5833V9.66675C17.5833 9.24682 17.4165 8.84409 17.1196 8.54716C16.8227 8.25023 16.4199 8.08341 16 8.08341Z" fill="#4A2D24"/>
</svg>

<svg xmlns="http://www.w3.org/2000/svg" width="32" height="32" fill="none"><path fill="#4A2D24" d="M16 .167C24.745.167 31.833 7.255 31.833 16S24.745 31.833 16 31.833.167 24.745.167 16 7.255.167 16 .167m0 7.916a1.583 1.583 0 0 0-1.572 1.399l-.011.185v4.75h-4.75a1.583 1.583 0 0 0-.186 3.155l.186.011h4.75v4.75a1.583 1.583 0 0 0 3.155.186l.011-.186v-4.75h4.75a1.583 1.583 0 0 0 .186-3.155l-.186-.011h-4.75v-4.75A1.583 1.583 0 0 0 16 8.083"/></svg>
